X:144
T:The Kerry
R:jig
M:6/8
L:1/8
K:Gmaj
|:~B3 AGE|DB,D EDB,|G,B,D GBd|edB AGA|
BAB AGE|DB,D EDB,|G,B,D EDE|1 FEF G2d:|2 FEF G2A||
|:~B3 dBG|cAB cdc|BAB dBd|edB AGA|
BAB AGE|DB,D EDB,|G,B,D EDE|1 FEF G2A:|2 FEF G3||

